X:1
T:Polyphonic Étude No. 3
T:Polyphonic Étude No. 3
T:Terzetto
T:Heinrich Wilhelm Ernst
C:Heinrich Wilhelm Ernst
%%score ( 1 2 3 )
L:1/8
Q:1/4=70
M:4/4
K:E
V:1 treble nm="Violin" snm="Vln."
V:2 treble 
V:3 treble 
V:1
"^Allegro moderato e tranquillo"!p! z8 | c4-!<(! c/(^e/f/e/!<)!!>(! g/f/a/f/)!>)! | %2
!p! (e2 d/) x/ x x4 | B4- B/(^A/c/B/ e/d/f/e/) | g x x2 a/g/a/^a/ b/=a/g/f/ | %5
 g x x2 a/g/a/^a/ b/=a/g/f/ | g2 (c'/=b/^a/g/) g^^f/g/ ad | %7
 (b^a/b/) (e'/d'/c'/b/) (ba/b/) (c'/a/f/=e/) | d z z2 (e/d/e/g/ f/e/d/c/) | %9
 d z z2 (e/d/e/g/ f/e/d/c/) | d x [FB] x"_cresc." (d/^^c/e/d/) (f/^e/g/f/) | (b x e>)f (b x d>)e | %12
 ([db]2 c/^B/d/c/)"_poco riten."!<(! (d/c/e/d/ f/e/g/f/)!<)! |!f!"^a tempo" f4!p! (B3- [Be]) | %14
 ([Bd]4 c2{dc^Bc)}!<(! (!arpeggio!gf)!<)! | f4 (!arpeggio!B2{cB^AB} !arpeggio!f>)e | %16
 (d(3e/d/c/ de) (c^B/c/ d/c/g/f/) | f3!<(! (B{cB^AB}!<)! [=DBb])!^![DBa]!^![DBg]!^![DBf] | %18
!p! (f2"_cresc." ([B^e]2 [^Ag]))!^![Af]!^![=Ae]!^![Ad] | %19
!f! ([^Ac]2- [Ac]/[cf]/[f^a]/[ac']/)"_dimin." ([af']/[ac']/[fa]/[Af]/ [G^e]/[^Ec]/[GB]/[B,G]/) | %20
!mp! (F2-"_cresc." F/G/F/f/) (G/^A/G/f/ A/B/A/f/) |!f! f4 (B3 e) | %22
 ((d2 c/) x/ x e/) (e'/c'/^a/ ^e/f/{/a}g/f/) |"^ten." [Fdf]2 x2"^ten." [GB]2 ([Gf]>[Ge]) | %24
 (d2 c/ x/ x e/) ([ce']/[ec']/[c^a]/ ^e/f/g/f/) |"^ten." [Fdf]2 x [FB] ([d-d'][dc'])(([db][c^a])) | %26
 (^a2 g)b (!>!.a!>!.b)(c'>b) | ((b2 f)f) (f^^fge) | (e2 d)d (3(d!<(!fe) (3(egf)!<)! | %29
 f3 ([B,B]{[Cc][B,B][^A,^A][B,B]} [DA^^fd'])!^![DAfc']!^![Ddb]!^![Dc^a] | %30
 (^a2 g) !^![^^Fea] !^![Geb]!^![=Gee']!^![^F^fd']!^![^E=dbg'] | %31
 f'2- f'/([fd']/[db]/[eg]/ [df]/[Bd]/[GB]/[Be]/ [Bd]).!^![E^Ac] | %32
 !^![Dc^^f]2 (^f/a/g/f/) (!arpeggio!f/e/^B/c/ d/c/^a/g/) | %33
 (g B2 c) ([Bd]/[c=e]/4[Bd]/4[^Ac]/[Bd]/) ([ce]>[=EA]) | %34
 ([DB]2- [DB]/[Fc]/[Bd]/[cf]/) ([db]/[ec']/[fd']/[ec']/ [db]/[df]/[Bd]/[^Ac]/) | %35
 [DB] z z2 z2 (B>.B) | g4 (g/^a/=b/a/ c'/b/a/g/) | [df] z [db]z/.B/ [Bg] z [^Af] z | %38
 ([DB]2- [DB]/[Fc]/[Bd]/[cf]/) ([db]/[ec']/[fd']/[ec']/ [db]/[df]/[Bd]/[^Ac]/) | %39
 [DB] z z2 z2 (B>.B) | g4 (g/^a/=b/a/ c'/b/a/g/) | [df] z [db]z/.B/ [Bg] z [^Af] z | %42
 [DB] z x2 x2 [Ec]>[DB] |!<(! [DB] x x2!<)! x2 [=Ge]>[Fd] | [Fd]2 z2 z2!f! ([=Ge]>[Fd]) | %45
 [B,Fd] z!ff! ([E^A=g]>[DBf]) [DBf] z ([=Ge^a]>[Fdb]) | %46
 [db]2- (b/^a/c'/b/ d'/c'/e'/d'/ f'/^e'/g'/f'/) | %47
"_dimin."{/f} (a'/f'/d'/b/ =c'/a/f/e/)"_ritard." (!arpeggio!=a/f/d/B/ =c/=A/F/E/) | %48
 (D>!<(!E F/=G/A/B/)!<)!!>(! (.=c.c.c.c) | =c4!>)! (B/^A/"^dim."^c/B/ =A/G/B/A/) | %50
!p!"^a tempo" z8 | c4-!<(! c/(^e/f/e/!<)!!>(! g/f/a/f/)!>)! | %52
 (e2 d/) x/ x ([FA]/[Af]/[ca]/[Af]/ [Fd]/[Ac]/[GB]/[FA]/) | B4- (B/^A/c/B/ e/d/f/e/) | %54
 g x x2 (a/g/a/^a/ b/=a/g/f/) | g x x2 (a/g/a/^a/ b/=a/g/f/) | %56
!p! [Bg] x"_cresc." [Be] x [eg] x [eb] x | ([be']2 [ea]>b) ([ae']2 [eg]>a) | %58
 (([eg]2 f/)^e/g/f/)"_poco rit." (g/f/a/g/ b/a/c'/b/) |"_a tempo" b4 (e3 a) | %60
 ((([eg]4 [df]/))g/4f/4^e/f/)!<(! (c'>b)!<)! | !arpeggio!b4 x2 b>a | %62
 (g(3a/g/f/ ga) (f^e/f/!<(! g/f/!>!c'/b/)!<)! |!f!!<(! b3 (e{fede}!<)! g')!^!f'!^!e'!^!d' | %64
"_con molto espressione" (d'2 c')!>!e' !>!d'!>!e'(f'>e') | (e'2 b)b b^b(!>!c'>a) | %66
 (a2 g).g"_cresc." (3(gba) (3(ac'b) |!ff! b3 (e{fede} g')!^!f'!^!e'!^!d' | %68
 (d'2 c') !^!d' [cae'][caa'][=Bbg'][^A=ge'c''] | %69
 !arpeggio!b'2- b'/([bg']/[ge']/[ac']/ [gb]/[eg]/[ce]/[ca]/ [Bg])!^![df] | %70
!f! ^b2 (=b/=d'/c'/b/) (b/a/^e/f/"_dim." g/f/^d'/c'/) | %71
 (c'"_cresc." e2 f) ([eg]/[f=a]/4[eg]/4[df]/[eg]/)!ff!"_dim." !>!!fermata![fa]>[=Ad] | %72
!p! ([Ge]2- [Ge]/[Bf]/[eg]/[fb]/ [ge']/[gb]/[eg]/[Ge]/){/[Ge]} ([Bg][Af]) | %73
"^dimin. e riten." [Ge]2- ([Ge]/[Bf]/[eg]/[Bf]/ [Ge]/[GB]/[B,G]/[G,E]/) z/ (B/c/d/) | %74
 (e x x d) (e x x !arpeggio!d) | e x x2"_cresc." e2"^rit." ([ce]/f/[=ce]/f/) | %76
!ff! [EBg]2 x2"^p." !plus![Bg] z !plus![Bg] z | !plus![Bg] z z2 !fermata!z4 |] %78
V:2
 ([EG]2- [EG]/[FA]/[GB]/[Ac]/)!<(! ([GB]/[Be]/[Bg]/[Af]/!<)!!>(! [Ge]/[GB]/[FA]/[EG]/)!>)! | %1
 G2- G/F/A/G/ F/ z/ z z2 | %2
 ([B,F]2- [B,F]/[EG]/[FA]/[GB]/) ([FA]/[Af]/[ca]/[Af]/ [Fd]/[Ac]/[GB]/[FA]/) | %3
 A2- A/G/B/A/ G/ z/ z z2 | (E/D/F/E/ G/F/A/G/) (F3 B) | (E/D/F/E/ G/F/A/G/) (F3 B) | %6
 E x x E ([Dd-]>[^Ed]) ^^F x | G z z =G ([Ff-]>[^Gf]) [^Af] z | B,/^A,/C/B,/ D/C/E/D/ C z F z | %9
 B,/^A,/C/B,/ D/C/E/D/ C z F z | (B,/^A,/C/B,/) (D/C/E/D/) [FA] x [AB] x | %11
 ([G-f]2 G/^^F/G/A/) ([^F-e]2 F/^E/F/G/) | ^E4 =E z [E^A] z | [DB]4 G4 | F x x2 ^A z [EA] z | %15
 [DB]4 [EG] z [CG] z | [FB] z z2 [F^A] z =E z | [DB] z z2 x4 | z2 (C^^C ^D)!^!D!^!^B,!^!B, | %19
 C z z2 x4 | ^A,2- A,3/2 z/ B,3/2 z/ C3/2 z/ | [DB]4 G3 [GB] | %22
 [F-B]2 [F^A]/[GB]/[Ac]/[Bd]/ c/ z/ z z2 | (B,/^A,/C/B,/) (D/C/E/D/) (E/D/F/E/) C/^B,/D/C/ | %24
 [F-B]2 [F^A]/[GB]/[Ac]/[Bd]/ c/ x/ x [FA]/ x/ x | %25
 (B,/^A,/C/B,/) (D/C/E/D/) (^^F/^E/G/F/) (D/=D/=E/^D/) | [EB]2 z2 z2 [^E=d] z | [F^d]3 z F z z2 | %28
 [B,F]2 z2 [B,F] z [C^A] z | [DB]3 x x4 | [EB]2 z x x4 | [F^db] z x2 x4 | x2 [G^B] z [CGc] z E z | %33
 z [DF][EG][^EG] F/ x/ x F z | B,2 z2 z2 z ^^F, | (G,2- G,/B,/D/^^F/) (G/B/d/B/ G/B/G/^F/) | %36
 ([EB-]2 B/^A/B/^B/) (c2 =d2) | (F/^E/F/^^F/) (G/^F/=E/D/) (C/D/E/^E/) (F/=E/D/C/) | %38
 B,2 z2 z2 z ^^F, | (G,2- G,/B,/D/^^F/) (G/B/d/B/ G/B/G/^F/) | ([EB-]2 B/^A/B/^B/) (c2 =d2) | %41
 (F/^E/F/^^F/) (G/^F/=E/D/) (C/D/E/^E/) (F/=E/D/C/) | (B,>"^sul G"D F/B/d/f/) !0!=g2 ^A,>B, | %43
 B,/"^sul G"^A,/B,/D/ F/B/d/f/ !0!=g2 ^A,>B, | B,2 x2 x2 ^A,>B, | x4 x2 B,2 | %46
 [B,F] z d z f z ^a z | x2 A>^A [Bd] z z A,/^A,/ | B,>C D/E/F/=G/ !>!A!>!G!>!F!>!E | %49
 (E2- E/D/F/E/) .D/ z/ .B,/ z/ .C/ z/ .D/ z/ | %50
 ([EG]2- [EG]/[FA]/[GB]/[Ac]/)!<(! ([GB]/[Be]/[Bg]/[Af]/!<)!!>(! [Ge]/[GB]/[FA]/[EG]/)!>)! | %51
 G2- G/F/A/G/ F/ z/ z z2 | ([B,F]2- [B,F]/[EG]/[FA]/[GB]/) x4 | A2- A/G/B/A/ G/ z/ z z2 | %54
 (E/D/F/E/ G/F/A/G/) F z B z | (E/D/F/E/ G/F/A/G/) F z B z | %56
 (E/D/F/E/) (G/F/A/G/) (B/^A/c/B/) (=d/c/e/d/) | (c2- c/^B/c/=d/) (=B2- B/^A/B/c/) | %58
 (^A4 =A) z !>!d2 | [Ge]2 x2 c4 | B2 x2 x2 A2 | [Ge]2 x2 ([ce]2{fede} [Fc]2) | %62
 [Be] z z2 (^A2 =A) d | [Ge]3 x [^Bg]!^![Bg]!^![Gg]!^![Gf] | [Ae]2 z2 z2 [^A=g]2 | %65
 [B^g] z z2 [Bd] z d2 | [EB]2 z2 [EB] z [Fd] z | [Ge]3 x [^Bg]!^![Bg]!^![Gg]!^![Gf] | %68
 [Ae]2 z !^![^Ba] x4 | [B^ge'] x x2 x2 x !^!A | [Gf]2 [c^e] z [Fc] z A z | z [GB][Ac][^Ac] B x x2 | %72
 E x x2 x2 z/ (B,/C/D/) | E x x2 x2{/[G,E]} ([B,G][A,F]) | (G,2 A,B,) G,C [A,F]/G/[B,F]/B/ | %75
 ([G,E]2- [G,E]/[B,F]/[CA]/[Ac]/) AG BA | x2 z3/2 uE/ (.E2 .E2) | %77
{!fermata!D!fermata!E!fermata!F} !fermata!E8 |] %78
V:3
 x8 | A, x x2 x4 | x8 | E x x2 x4 | (B3 e) e2 d2 | (B3 e) e2 d2 | %6
 (B/^A/B/^B/) c^^c x2 (d/^c/=B/^A/) | d/^^c/d (e^e) x4 | (F3 B) B2 ^A2 | (F3 B) B2 ^A2 | %10
 F-F x2 x4 | x8 | x8 | x8 | x8 | x8 | x8 | x8 | x8 | x8 | x8 | x8 | x8 | x8 | x8 | x8 | x8 | %27
 x4 ^A4 | x8 | x8 | x8 | x8 | x8 | x8 | x8 | x8 | x4 x2 E x | x8 | x8 | x8 | x4 x2 E x | x8 | x8 | %43
 x8 | x8 | x8 | x8 | x8 | x8 | x8 | x8 | A, x x2 x4 | x8 | E x x2 x4 | (B3 e) (e2 d2) | %55
 (B3 e) (e2 d2) | x8 | x8 | x8 | x8 | x8 | x8 | x8 | x8 | x8 | x8 | x8 | x8 | x8 | x8 | x8 | x8 | %72
 x8 | x8 | E2 F/G/ F/B/ E2 x2 | x4 (B/c/B/=d/) x2 | x8 | x8 |] %78

